assets/Person in manual wheelchair/Dark/Flat/person_in_manual_wheelchair_flat_dark.svg

<svg width="32" height="32" viewBox="0 0 32 32" fill="none" xmlns="http://www.w3.org/2000/svg">
<path d="M8.33643 22.3067L9.48643 16.7167C9.69643 15.6667 10.2564 15.2867 10.9864 15.2367L15.3064 14.8667L19.6664 14.6667C19.6664 14.6667 20.4464 17.6467 19.2964 17.6467L12.1964 17.7867C12.0164 17.7867 11.8564 17.8967 11.7964 18.0567L9.40643 23.7467L8.33643 22.3067Z" fill="#9B9B9B"/>
<path d="M9.44652 23.6668L8.95652 24.7068C8.90652 24.8168 8.77652 24.8568 8.67652 24.8068L5.17652 23.1768C4.90652 23.0468 4.95652 22.6468 5.25652 22.5968L8.34652 22.3068L9.44652 23.6668Z" fill="#533566"/>
<path d="M21.3168 10.9567C20.9633 10.9567 20.6768 11.2432 20.6768 11.5967C20.6768 11.9501 20.9633 12.2367 21.3168 12.2367H24.3268C24.6802 12.2367 24.9668 11.9501 24.9668 11.5967C24.9668 11.2432 24.6802 10.9567 24.3268 10.9567H21.3168Z" fill="#212121"/>
<path d="M11.6567 17.6667H19.6167V20.1367H11.1167V18.2067C11.1167 17.9067 11.3567 17.6667 11.6567 17.6667Z" fill="#212121"/>
<path d="M11.64 22.4366C11.9935 22.4366 12.28 22.7232 12.28 23.0766V28.3166C12.28 28.6701 11.9935 28.9566 11.64 28.9566C11.2865 28.9566 11 28.6701 11 28.3166V23.0766C11 22.7232 11.2865 22.4366 11.64 22.4366Z" fill="#9B9B9B"/>
<path d="M21.9404 11.7778C22.0404 11.4388 21.8467 11.0829 21.5077 10.9829C21.1687 10.8829 20.8128 11.0766 20.7127 11.4156L19.4793 15.5967H14.92C13.5865 15.5967 12.5 16.6832 12.5 18.0167V19.0566H11.64C11.2865 19.0566 11 19.3432 11 19.6966V19.9383L8.4861 25.3574C8.33735 25.678 8.4767 26.0585 8.79734 26.2073C9.11798 26.356 9.49849 26.2167 9.64724 25.896L11 22.9799V23.7866C11 24.1401 11.2865 24.4266 11.64 24.4266H11.65C12.4503 24.4266 13.1062 25.0763 13.1201 25.8679C13.1262 26.2169 13.4109 26.4966 13.76 26.4966H20.01C20.3635 26.4966 20.65 26.2101 20.65 25.8566V20.1311C20.7555 20.017 20.82 19.8644 20.82 19.6967V16.2367C20.82 16.1131 20.785 15.9978 20.7244 15.8999L21.9404 11.7778ZM19.54 19.0566H13.78V18.0167C13.78 17.3901 14.2935 16.8767 14.92 16.8767H19.54V19.0566ZM13.1329 20.3366C13.1352 20.3367 13.1376 20.3367 13.14 20.3367C13.1424 20.3367 13.1448 20.3367 13.1471 20.3366H19.37V25.2166H14.3154C14.0633 24.2311 13.2747 23.4542 12.28 23.2196V20.3366H13.1329Z" fill="#F92F60"/>
<path d="M27.0267 23.7867C27.0267 27.2826 24.1927 30.1167 20.6967 30.1167C17.2007 30.1167 14.3667 27.2826 14.3667 23.7867C14.3667 20.2907 17.2007 17.4567 20.6967 17.4567C24.1927 17.4567 27.0267 20.2907 27.0267 23.7867Z" fill="#321B41"/>
<path d="M13.4766 28.3367C13.4766 29.2921 12.7021 30.0667 11.7466 30.0667C10.7911 30.0667 10.0166 29.2921 10.0166 28.3367C10.0166 27.3812 10.7911 26.6067 11.7466 26.6067C12.7021 26.6067 13.4766 27.3812 13.4766 28.3367Z" fill="#321B41"/>
<path d="M25.6965 23.7867C25.6965 26.5482 23.458 28.7867 20.6965 28.7867C17.9351 28.7867 15.6965 26.5482 15.6965 23.7867C15.6965 21.0253 17.9351 18.7867 20.6965 18.7867C23.458 18.7867 25.6965 21.0253 25.6965 23.7867Z" fill="#9B9B9B"/>
<path d="M8.8266 26.3167C8.9166 26.3567 9.0166 26.3767 9.1066 26.3767C9.3566 26.3767 9.5966 26.2367 9.6966 25.9967C9.8466 25.6667 9.7066 25.2767 9.3766 25.1267L6.1466 23.6367C5.8166 23.4867 5.4266 23.6267 5.2766 23.9567C5.1266 24.2867 5.2666 24.6767 5.5966 24.8267L8.8266 26.3167Z" fill="#9B9B9B"/>
<path d="M20.6966 27.9267C22.9831 27.9267 24.8366 26.0732 24.8366 23.7867C24.8366 21.5003 22.9831 19.6467 20.6966 19.6467C18.4102 19.6467 16.5566 21.5003 16.5566 23.7867C16.5566 26.0732 18.4102 27.9267 20.6966 27.9267Z" fill="#D3D3D3"/>
<path d="M20.6966 24.9667C21.3483 24.9667 21.8766 24.4384 21.8766 23.7867C21.8766 23.135 21.3483 22.6067 20.6966 22.6067C20.0449 22.6067 19.5166 23.135 19.5166 23.7867C19.5166 24.4384 20.0449 24.9667 20.6966 24.9667Z" fill="#212121"/>
<path d="M16.4066 6.45667L17.0366 8.29667L15.1566 8.95667L14.5366 7.07666L16.4066 6.45667Z" fill="#452829"/>
<path d="M16.3567 8.01665C15.1267 8.30665 14.3667 9.53665 14.6567 10.7667L15.3167 14.8766L20.3267 16.7766L19.1067 9.71665C18.8167 8.48665 17.5767 7.72665 16.3567 8.01665Z" fill="#FF6723"/>
<path d="M17.5035 9.18267C17.1975 8.82534 16.6597 8.78372 16.3024 9.08971C15.9451 9.39569 15.9035 9.93341 16.2095 10.2907L18.9058 13.4395L18.008 17.1375C17.8189 17.2089 17.2457 17.461 17.3966 17.8467C17.5066 18.1367 17.5366 18.2567 17.5366 18.2567C17.5366 18.2567 17.3166 18.4967 17.5166 18.7067C17.7766 18.9867 18.2066 19.1067 18.2066 19.1067C18.5566 19.2067 19.0366 19.2067 19.2066 19.0267C19.3505 18.8828 19.4392 18.5088 19.4903 18.2932C19.4925 18.2841 19.4946 18.2752 19.4966 18.2667L19.6182 17.6912C19.6326 17.6547 19.6447 17.6168 19.6542 17.5777L20.6642 13.4177C20.7288 13.1516 20.6616 12.8707 20.4835 12.6627L17.5035 9.18267Z" fill="#573739"/>
<path d="M19.2465 10.9867L17.4065 8.95665C17.0265 8.53665 16.3765 8.50665 15.9465 8.88665C15.5265 9.26665 15.4965 9.91666 15.8765 10.3467L17.7065 12.3667L19.2465 10.9867Z" fill="#FF8101"/>
<path d="M14.5466 8.12674C15.2366 8.01674 16.2766 7.48674 16.4466 6.61674L16.5566 5.47674L16.6966 4.27674C16.5466 3.43674 15.7466 2.86674 14.9066 3.00674L13.9066 3.17674C13.0666 3.31674 12.4966 4.11674 12.6366 4.95674L12.7393 5.56282C12.7347 5.56743 12.7305 5.57527 12.7267 5.58671C12.6377 5.85839 12.5618 6.00939 12.5095 6.11371C12.45 6.23211 12.4207 6.29039 12.4367 6.39671C12.4767 6.59671 12.7167 6.71671 12.9167 6.68671C12.9216 6.68567 12.9264 6.68456 12.9309 6.68339C13.1138 7.64787 13.3927 8.3248 14.5466 8.12674Z" fill="#573739"/>
<path d="M13.1667 5.76664C13.1067 5.77664 13.0567 5.72664 13.0367 5.65664V5.64664C12.9867 5.36664 13.2067 5.16664 13.4367 5.12664C13.6667 5.08664 13.9367 5.20664 13.9867 5.48664V5.49664C13.9967 5.56664 13.9567 5.62664 13.8967 5.63664L13.1667 5.76664Z" fill="white"/>
<path d="M13.0766 5.78381C13.0566 5.74381 13.0466 5.70381 13.0366 5.65381C13.0066 5.45381 13.1066 5.26381 13.2666 5.23381C13.4266 5.20381 13.5866 5.35381 13.6166 5.55381C13.6266 5.60381 13.6266 5.64381 13.6166 5.68381L13.0766 5.78381Z" fill="#7D4533"/>
<path d="M13.1766 5.75672C13.1466 5.72672 13.1266 5.68672 13.1166 5.63672C13.0966 5.51672 13.1566 5.41672 13.2466 5.39672C13.3366 5.37672 13.4266 5.46672 13.4466 5.57672C13.4566 5.62672 13.4466 5.67672 13.4366 5.71672L13.1766 5.75672Z" fill="black"/>
<path d="M13.1675 5.54547C13.2002 5.53993 13.2214 5.50454 13.215 5.46643C13.2085 5.42831 13.1768 5.4019 13.1441 5.40744C13.1114 5.41298 13.0902 5.44837 13.0966 5.48648C13.1031 5.52459 13.1348 5.551 13.1675 5.54547Z" fill="white"/>
<path d="M13.893 6.56431C13.9495 6.57335 13.988 6.6265 13.9789 6.68303C13.9301 6.98839 13.6479 7.19823 13.3402 7.149C13.2837 7.13996 13.2452 7.0868 13.2542 7.03028C13.2633 6.97375 13.3164 6.93526 13.373 6.94431C13.5653 6.97508 13.7431 6.84492 13.7742 6.65028C13.7833 6.59375 13.8364 6.55526 13.893 6.56431Z" fill="#290118"/>
<path d="M15.3667 4.7267C15.3667 4.7267 15.2367 3.9367 13.9367 4.1567C12.8467 4.3467 12.4767 4.02669 12.3767 3.39669C12.2567 2.74669 12.7567 2.49669 13.0367 2.44669C13.4055 2.38665 13.6162 2.40754 13.7917 2.42496C14.0254 2.44814 14.1969 2.46515 14.5967 2.27669C15.5667 1.82669 17.0867 1.75669 17.3667 3.38669C17.7467 5.62669 16.9367 5.7767 16.9367 5.7767C17.5767 5.67669 17.6467 6.5067 17.1667 6.5867C17.1271 6.59351 17.082 6.60461 17.0332 6.61661C16.7241 6.69261 16.2676 6.80486 16.1467 6.09669C16.1159 5.91572 16.0821 5.7582 16.0463 5.62113C16.0998 5.50779 16.1199 5.37797 16.0967 5.24667C16.0419 4.9269 15.7617 4.7073 15.4544 4.7175C15.4016 4.71241 15.3667 4.7267 15.3667 4.7267Z" fill="black"/>
<path d="M13.7349 4.85458L13.7336 4.85395L13.7263 4.85044C13.7193 4.8472 13.7083 4.84232 13.6935 4.8366C13.664 4.82514 13.6201 4.81044 13.5648 4.79872C13.4544 4.77529 13.3006 4.76416 13.1266 4.81323C13.0678 4.82982 13.0066 4.79558 12.99 4.73673C12.9734 4.67789 13.0077 4.61674 13.0665 4.60014C13.2826 4.5392 13.4738 4.55308 13.6108 4.58214C13.6793 4.59668 13.7347 4.6151 13.7737 4.6302C13.7931 4.63776 13.8195 4.64961 13.8195 4.64961C13.8781 4.69947 13.9261 4.76219 13.8894 4.85044C13.8729 4.88998 13.8256 4.90433 13.7349 4.85458Z" fill="black"/>
</svg>

<svg xmlns="http://www.w3.org/2000/svg" width="32" height="32" fill="none"><path fill="#9B9B9B" d="m8.336 22.307 1.15-5.59c.21-1.05.77-1.43 1.5-1.48l4.32-.37 4.36-.2s.78 2.98-.37 2.98l-7.1.14c-.18 0-.34.11-.4.27l-2.39 5.69-1.07-1.44Z"/><path fill="#533566" d="m9.447 23.667-.49 1.04c-.05.11-.18.15-.28.1l-3.5-1.63c-.27-.13-.22-.53.08-.58l3.09-.29 1.1 1.36Z"/><path fill="#212121" d="M21.317 10.957a.64.64 0 1 0 0 1.28h3.01a.64.64 0 0 0 0-1.28h-3.01ZM11.657 17.667h7.96v2.47h-8.5v-1.93c0-.3.24-.54.54-.54Z"/><path fill="#9B9B9B" d="M11.64 22.437a.64.64 0 0 1 .64.64v5.24a.64.64 0 1 1-1.28 0v-5.24a.64.64 0 0 1 .64-.64Z"/><path fill="#F92F60" d="M21.94 11.778a.64.64 0 1 0-1.227-.362l-1.234 4.18H14.92a2.424 2.424 0 0 0-2.42 2.42v1.04h-.86a.64.64 0 0 0-.64.64v.242l-2.514 5.42a.64.64 0 1 0 1.161.538L11 22.98v.807c0 .353.287.64.64.64h.01c.8 0 1.456.65 1.47 1.44a.64.64 0 0 0 .64.63h6.25a.64.64 0 0 0 .64-.64V20.13a.638.638 0 0 0 .17-.434v-3.46a.638.638 0 0 0-.096-.337l1.216-4.122Zm-2.4 7.279h-5.76v-1.04c0-.627.514-1.14 1.14-1.14h4.62v2.18Zm-6.407 1.28h6.237v4.88h-5.055a2.764 2.764 0 0 0-2.035-1.997v-2.883h.853Z"/><path fill="#321B41" d="M27.027 23.787a6.33 6.33 0 1 1-12.66 0 6.33 6.33 0 0 1 12.66 0ZM13.477 28.337a1.73 1.73 0 1 1-3.46 0 1.73 1.73 0 0 1 3.46 0Z"/><path fill="#9B9B9B" d="M25.697 23.787a5 5 0 1 1-10 0 5 5 0 0 1 10 0ZM8.827 26.317c.09.04.19.06.28.06.25 0 .49-.14.59-.38.15-.33.01-.72-.32-.87l-3.23-1.49a.655.655 0 1 0-.55 1.19l3.23 1.49Z"/><path fill="#D3D3D3" d="M20.697 27.927a4.14 4.14 0 1 0 0-8.28 4.14 4.14 0 0 0 0 8.28Z"/><path fill="#212121" d="M20.697 24.967a1.18 1.18 0 1 0 0-2.36 1.18 1.18 0 0 0 0 2.36Z"/><path fill="#452829" d="m16.407 6.457.63 1.84-1.88.66-.62-1.88 1.87-.62Z"/><path fill="#FF6723" d="M16.357 8.017a2.285 2.285 0 0 0-1.7 2.75l.66 4.11 5.01 1.9-1.22-7.06a2.29 2.29 0 0 0-2.75-1.7Z"/><path fill="#573739" d="M17.503 9.183a.852.852 0 0 0-1.294 1.108l2.697 3.149-.898 3.697c-.19.072-.762.324-.611.71.11.29.14.41.14.41s-.22.24-.02.45c.26.28.69.4.69.4.35.1.83.1 1-.08.143-.144.232-.518.283-.734a4.43 4.43 0 0 0 .007-.026l.121-.576a.867.867 0 0 0 .036-.113l1.01-4.16a.852.852 0 0 0-.18-.755l-2.98-3.48Z"/><path fill="#FF8101" d="m19.247 10.987-1.84-2.03c-.38-.42-1.03-.45-1.46-.07-.42.38-.45 1.03-.07 1.46l1.83 2.02 1.54-1.38Z"/><path fill="#573739" d="M14.547 8.127c.69-.11 1.73-.64 1.9-1.51l.11-1.14.14-1.2c-.15-.84-.95-1.41-1.79-1.27l-1 .17c-.84.14-1.41.94-1.27 1.78l.102.606a.062.062 0 0 0-.012.024c-.09.271-.165.422-.218.527-.059.118-.088.176-.072.283.04.2.28.32.48.29a.326.326 0 0 0 .014-.004c.183.965.462 1.642 1.616 1.444Z"/><path fill="#fff" d="M13.167 5.767c-.06.01-.11-.04-.13-.11v-.01c-.05-.28.17-.48.4-.52.23-.04.5.08.55.36v.01c.01.07-.03.13-.09.14l-.73.13Z"/><path fill="#7D4533" d="M13.077 5.784a.495.495 0 0 1-.04-.13c-.03-.2.07-.39.23-.42.16-.03.32.12.35.32.01.05.01.09 0 .13l-.54.1Z"/><path fill="#000" d="M13.177 5.757a.228.228 0 0 1-.06-.12c-.02-.12.04-.22.13-.24.09-.02.18.07.2.18.01.05 0 .1-.01.14l-.26.04Z"/><path fill="#fff" d="M13.168 5.545c.032-.005.053-.04.047-.079-.006-.038-.038-.064-.07-.059-.034.006-.055.041-.048.08.006.038.038.064.07.058Z"/><path fill="#290118" d="M13.893 6.564a.104.104 0 0 1 .086.119.557.557 0 0 1-.639.466.104.104 0 0 1 .033-.205c.192.031.37-.1.401-.294a.104.104 0 0 1 .119-.086Z"/><path fill="#000" d="M15.367 4.727s-.13-.79-1.43-.57c-1.09.19-1.46-.13-1.56-.76-.12-.65.38-.9.66-.95.368-.06.58-.04.755-.022.233.023.405.04.805-.148.97-.45 2.49-.52 2.77 1.11.38 2.24-.43 2.39-.43 2.39.64-.1.71.73.23.81-.04.007-.085.018-.134.03-.309.076-.765.188-.886-.52a5.62 5.62 0 0 0-.1-.476.634.634 0 0 0-.592-.904c-.053-.005-.088.01-.088.01Z"/><path fill="#000" d="m13.735 4.855-.001-.001-.008-.004a.838.838 0 0 0-.162-.052.913.913 0 0 0-.437.015.11.11 0 0 1-.06-.213 1.134 1.134 0 0 1 .752.05c.06.05.107.112.07.2-.016.04-.063.054-.154.005Z"/></svg>
